!!!OTL: 15. Freylekhs (tsu der khupe)
!!!Genre:	Freylekhs (tsu der khupe)
!!!Mode:	Freygish
!!!Listening/dance:	listening
!!!:	*C:
!!!One_Mode:	no
!!!Orig_tonic: C
**kern
*thru
*I"P1
*clefG2
*k[b-e-a-]
*C:
!LO:TX:a:i:t=C-major
8gJ
8ccL
8ddJ
=37||
*k[]
2ee
8qqee/L
8qqee/
8qqee/
8qqee/J
=38
(16qqee/LL
16qqff/JJ
(8eeL)
8ddJ)
(8ddL
8ccJ)
=39
(8qcc/
2ee)
=40
8r
8g
8ccL
8ddJ
=41
(8ddL
8eeJ)
8eeL
8eeJ
=42
8eeL
8ggJ
(8qgg/
8ffL)
8eeJ
=43
(8.ffL
16eeJk
[4dd)
=44
4dd]
8r
8dd
=45
(16ddLL
16eeJJ
4ff)
8ff
=46
8ffL
16aaL
16aaJJ
8.ggL
16ggJk
=47
8ggL
(8qaa/
8ggJ)
4ee
=48
(16eeLL
16ff
16ee
16ddJJ)
4cc
=49
(16ccLL
16ddJJ)
4dd
8dd
=50
(16qqcc/LL
16qqdd/JJ
8ccL)
8bJ
8aL
8bJ
*>C1
=51
[2ccT
=52
8ccL]
8gJ
8ccL
8ddJ
*>C
!LO:TX:a:i:t=C-major
8gJ
8ccL
8ddJ
=37||
*k[]
2ee
8qqee/L
8qqee/
8qqee/
8qqee/J
=38
(16qqee/LL
16qqff/JJ
(8eeL)
8ddJ)
(8ddL
8ccJ)
=39
(8qcc/
2ee)
=40
8r
8g
8ccL
8ddJ
=41
(8ddL
8eeJ)
8eeL
8eeJ
=42
8eeL
8ggJ
(8qgg/
8ffL)
8eeJ
=43
(8.ffL
16eeJk
[4dd)
=44
4dd]
8r
8dd
=45
(16ddLL
16eeJJ
4ff)
8ff
=46
8ffL
16aaL
16aaJJ
8.ggL
16ggJk
=47
8ggL
(8qaa/
8ggJ)
4ee
=48
(16eeLL
16ff
16ee
16ddJJ)
4cc
=49
(16ccLL
16ddJJ)
4dd
8dd
=50
(16qqcc/LL
16qqdd/JJ
8ccL)
8bJ
8aL
8bJ
*>C2
=53:|!
[2ccT
=54
8ccL]
24ddL
24ee
24ddJJ
8ccL
8ddJ
*>D
!!!End-Modulation
*-
